X: 9762
T: Delia's Dream
R: hornpipe
M: 4/4
K: Dmajor
g/f/e|:dA FA EA eg|fd AG F/E/D FA|GB ef ga ba|g/a/g fg ec AG|
FA fA EA eg|f/g/f ec dA FA|GA aA gA e/f/g|af ge d2 dc:|
de fg a^g ab|af ge fd AF|GB ef ga ba|g/a/g fg ec AG|
FA fA EA eg|f/g/f ec dA FA|GA aA gA e/f/g|1 af ge d2 A/B/c:|2 af ge d4||

